X:57
T:Quick March. JJo.057
S:J.Jones MS,1801,N.Shrops.
A:N Shropshire
Z:Neil Brookes 2006
M:6/8
L:1/8
Q:3/8=110
K:C
G|cde cde|f2ff2d|edcgfe|d2dd2G|!
cde cde|f2ff2d|egc dcd|c2c[c2C2]::!
g|gdf edc|B2cd2g|gfe gfe|d2dd2G|
cde cde|f2ff2d|egc dcd|c4:|

